X:2
T:Valse d'Amélie
C:Yann Tiersen
L:1/8
Q:396
M:3/4
K:C
 [d2D,,2] D,2 D,2 | D,,2 D,2 [c2D,2] | [B2A,,2] A,2 A,2 | [A2A,,2] A,2 A,2 | [d2D,,2] D,2 D,2 | \
 [e2D,,2] D,2 [c2D,2] | [B2A,,2] A,2 A,2 | [A2A,,2] A,2 A,2 | [c2F,,2] F,2 F,2 | F,,2 F,2 [B2F,2] | \
 [E2C,,2] C,2 C,2 | C,,2 C,2 C,2 | [c2F,,2] F,2 F,2 | [c2F,,2] F,2 [B2F,2] | [E2C,,2] C,2 C,2 | \
 C,,2 C,2 C,2 | [d2D,,2] D,2 D,2 | D,,2 D,2 D,c | [B2A,,2] A,2 A,2 | [A2A,,2] A,2 A,2 | \
 [d2D,,2] D,2 D,2 | D,,e [dD,]c [BD,]c | [B2A,,2] A,2 A,2 | [A2A,,2] A,2 A,2 | "Cette jolie vals"[c2F,,2] F,2 F,2 | \
 F,,2 [c2F,2] [B2F,2] | [E2C,,2] C,2 C,2 | C,,2 [F2F,2] [E2C,2] | [c2F,,2] F,2 F,2 | \
 F,,d [cF,]B [cF,]B | [E2C,,2] C,2 C,2 | C,,2 C,2 C,2 | \
W:Created with TablEdit http://www.tabledit.com/
